X: 32
T:Dowch I'r Frwydr
T:Come to the Battle
M:C|
L:1/4
Q:100
C:Trad
S:51 Welsh Airs
R:?
A:Wales
H:From a facsimile c.1840: A Choice Collection of Fifty-One Welsh Airs
H:adapted for The Harp, Piano-Forte, Harpsichord,
H:Violin, or Flute by Edward Jones
H:"Harper to His Late Majesty King George IV, when
H:Prince of Wales".
Z:brian_martin12345@yahoo.com
K:G
"Majestic"
G4|G2A2|B2G2|A2D2|F2F2|G2G2|F2E2|D4:||
B2d2|(B>A)G2|A2c2|(F>E)D2|G2G2|B2d2|B2A2|G4:||
